X:3070
T:Troika
C:anon.
O:Russia
R:Troika
F:http://abc.musicaviva.com/tunes/russia/troika02.abc
M:C
L:1/4
K:Em
"Em"B>AGF|"Em"E^DEB,|"Em"B>AGF|"Em"E^DE2|
"D7"D/dc/"G"cB|"B7"F/BA/"Em"AG|"B"FG/A/"Em"BE|"B7"GFE2|
"Em"GGGE/G/|"B7"FFF^D|"Em"GGGG|"B7"^DB,B,2|
"Em"GGGF/G/|"Am"AAAG/A/|"Em"BE"B7"GF|"B7"E^D"Em"E2|]
W:
W:
W:  From Musica Viva - http://www.musicaviva.com
W:  the Internet center for free sheet music downloads.


